X: 012
T: Lady Charlotte Durham
R: strathspey
M: C
L: 1/16
Q: "Slow"
Z: 2012 John Chambers <jc:trillian.mit.edu>
B: J. Anderson "Budget of Strathspeys, Reels and Country Dances" (Early 1800s) p.1 #2
F: http://imslp.org/wiki/Anderson%27s_Budget_of_Strathspeys,_Reels_and_Country_Dances_(Various)
K: G
D2 |\
GG3 gg3 g3dB3d | G3G (G2AB) E6 (FG) | D3D D3E F3GA3B | c3AB3G A3GE3F |
GG3 gg3 (gb)(ab) (gd)(Bd) | G2G2 G2(AB) (E6F)G | D3D D3E F3GA3B | c3ed3F {F}G4G2 |]
(Bc) |\
.d2.d2.d2g2 .d2.d2.d2(Bc) | .d2.d2.d2.g2 d6 (Bc) | dd3 b3a g3fe3d | (c3B)(A3G) (F2E2)(F2D2) |
GG3 gg3 | (gb)(ab) gdBd | G2G2(G2AB) (E6 F)G | D3DD3E F3GA3B | c3e d2F2 (F4G2) |]

%%sep 2 1 500
%%sep 1 1 500

